!!! OTL: Berkowitz207
!!! Chapter: 1
!!! Section: II
!!! Page: 46
!!! Mode: 
!!! Encoder: DJB
**kern
*staff1
*I"Piano
=1-
*clefC4
*k[f#c#g#d#]
*E-:
*M4/4
4E/
8.E/L
16G#/Jk
4B\
16E/LL
16F#/
16G#/
16A/JJ
=2
8B\L
8e\
8d#\
8c#\J
4.B\
8A\
=3
4G#/
8.F#/L
16E/Jk
4F#/
4BB/
=4
8E/L
16E/L
16E/JJ
8E/L
8G#/J
4B\
8.A\L
16c#\Jk
=5
8e\L
8e\
8e\
8c#\J
4B\
4G#/
=6
!!linebreak:original
16c#\LL
16B\
16A\
16G#\JJ
4F#/
16B/LL
16A/
16G#/
16F#/JJ
4E/
=7
8BB/L
16BB/L
16BB/JJ
8D#/L
8F#/J
4E/
4r
==
*-
